X:1
T: I'm Waiting for You
C:
R:Reel
Q: 232
K:G
M:4/4
L:1/8
|:((3DEF) |GF GB AF ED|GB dg e2 ((3def) |gf ge dB Ac|BG AF GF ED|
GF GB AF ED|GB dg e2 ((3def) |gf ge dB ge|dB AB G2 ef|
g2 dg ed gd|ea ag ag ef|g2 dg ed gd|eg fa g2 ga|
ba bg ag af|gf ge d2 ef|gf ge dB ge|dB AB G2:|
